icons/measure-building-height-top-base-32-f.svg

<svg xmlns="http://www.w3.org/2000/svg" viewBox="0 0 32 32"><path d="M17 28V2h-1l1.5-2L19 2h-1v26h1l-1.5 2-1.5-2zm15 3v1H0v-1h1V0h14v31zM7 25H4v3h3zm0-7H4v3h3zm0-7H4v3h3zm0-7H4v3h3zm5 21H9v3h3zm0-7H9v3h3zm0-7H9v3h3zm0-7H9v3h3z"/></svg>

<svg id="icons" xmlns="http://www.w3.org/2000/svg" viewBox="0 0 32 32"><title>measure-building-height-top-base-32-f</title><path d="M17,28V2H16l1.5-2L19,2H18V28h1l-1.5,2L16,28Zm15,3v1H0V31H1V0H15V31ZM7,25H4v3H7Zm0-7H4v3H7Zm0-7H4v3H7ZM7,4H4V7H7Zm5,21H9v3h3Zm0-7H9v3h3Zm0-7H9v3h3Zm0-7H9V7h3Z"/></svg>
